X:79
T:House With No Roof* (sj)
B:NFID.186a  ("untitled slip jig")
079house
S:DOD
L:1/8
M:9/8
R:slip jig
Q:300
K:D
F|E2B B>AF B>cd|E2B BAF A2F|E2B B>AF B>cd|e>dB BAF A2F|
E2B B>AF B>cd|E2B BAF A2F|E2B B>AF B>cd|e>dB BAF A2||
c|d2f fdB Bcd|c2e ecA ABc|d2f fdB Bcd|c>BA BAF A2c|
d2f fdB Bcf|c2e ecA ABc|a2a aec Bcd|e>dB BAF A2||

%%%

